src/pos-icons/bio.svg

<svg height="24" viewBox="0 0 24 24" width="24" xmlns="http://www.w3.org/2000/svg"><path d="m17 12h3a2 2 0 0 1 2 2v3a2 2 0 0 1 -2 2h-3a2 2 0 0 1 -2-2v-3a2 2 0 0 1 2-2m0 2v3h3v-3zm-15-7h5a2 2 0 0 1 2 2v2a2 2 0 0 1 -2 2 2 2 0 0 1 2 2v2a2 2 0 0 1 -2 2h-5v-6zm2 2v3h3v-3zm0 8h3v-3h-3zm7-4h2v6h-2zm0-4h2v2h-2z"/></svg>

<?xml version="1.0" encoding="UTF-8"?><!DOCTYPE svg PUBLIC "-//W3C//DTD SVG 1.1//EN" "http://www.w3.org/Graphics/SVG/1.1/DTD/svg11.dtd"><svg xmlns="http://www.w3.org/2000/svg" xmlns:xlink="http://www.w3.org/1999/xlink" version="1.1" id="mdi-bio" width="24" height="24" viewBox="0 0 24 24"><path d="M17,12H20A2,2 0 0,1 22,14V17A2,2 0 0,1 20,19H17A2,2 0 0,1 15,17V14A2,2 0 0,1 17,12M17,14V17H20V14H17M2,7H7A2,2 0 0,1 9,9V11A2,2 0 0,1 7,13A2,2 0 0,1 9,15V17A2,2 0 0,1 7,19H2V13L2,7M4,9V12H7V9H4M4,17H7V14H4V17M11,13H13V19H11V13M11,9H13V11H11V9Z" /></svg>
